src/images/logo.svg

<?xml version="1.0" encoding="UTF-8"?>
<svg fill="none" viewBox="0 0 38 38" xmlns="http://www.w3.org/2000/svg">
<path d="m19 38c10.493 0 19-8.5066 19-19 0-10.493-8.5066-19-19-19-10.493 0-19 8.5066-19 19 0 10.493 8.5066 19 19 19zm0-9.5c5.2467 0 9.5-4.2533 9.5-9.5s-4.2533-9.5-9.5-9.5-9.5 4.2533-9.5 9.5 4.2533 9.5 9.5 9.5z" clip-rule="evenodd" fill="#3DDC84" fill-rule="evenodd"/>
</svg>

<svg width="38" height="38" viewBox="0 0 38 38" fill="none" xmlns="http://www.w3.org/2000/svg">
<path fill-rule="evenodd" clip-rule="evenodd" d="M19 38C29.4934 38 38 29.4934 38 19C38 8.50659 29.4934 0 19 0C8.50659 0 0 8.50659 0 19C0 29.4934 8.50659 38 19 38ZM19 28.5C24.2467 28.5 28.5 24.2467 28.5 19C28.5 13.7533 24.2467 9.5 19 9.5C13.7533 9.5 9.5 13.7533 9.5 19C9.5 24.2467 13.7533 28.5 19 28.5Z" fill="#3DDC84"/>
</svg>
